smiling-axolotl/src/assets/hero/Left.svg

<svg xmlns="http://www.w3.org/2000/svg" width="783" height="478" fill="none"><path fill="url(#a)" fill-rule="evenodd" d="M108.775.201c-1.629 22.654-11.882 40.65-11.596 64.576.572 47.854 42.654 73.319 29.915 129.107-10.953 47.915-95.091 107.856-96.46 140.454-.27 6.753 17.54 24.057 23.043 24.472 4.298.288 54.362-32.63 70.964-26.12-39.496-48.43-17.54-85.05 27.915-118.419 16.376-12.047 8.277-.573 5.907 8.179-4.716 17.767-30.229 111.669 15.59 82.904 45.818-28.764 17.438-85.078 19.219-126.607.621-14.012 13.074-84.99 20.475-90.684 11.915-9.253 10.167 4.192 11.126 11.268 8.153 60.957 25.43 70.929 38.746 117.037s.003 91.062-30.137 125.21c-14.263 16.198-35.405 21.798-40.544 28.172-8.371 10.331-11.145 35.847-22.982 52.492-10.527 14.78-27.906 20.456-38.595 34.628 50.665 30.617 66.961 9.557 85.81-16.184-9.516-21.025-16.338-38.793-16.734-45.493-1.667-28.366 25.733-43.281 51.565-38.34 18.213 3.508 24.176 29.659 29.897 43.72 1.963 4.788 2.731 13.691 9.567 5.631 11.946-14.048-15.154-107.792 8.381-143.759-4.866-4.49-10.321-8.724-9.136-11.162l15.307-12.058-12.72-10.465 12.423-6.334c2.317-15.104-10.323-16.376-13.7-29.512l14.318.363-16.67-23.76 15.659 4.771-18.011-28.168 30.44-9.488-.164.244c6.766 10.486-8.505 14.041-8.242 20.232.843 19.377 12.408 11.336 13.289 12.025 3.172 2.438-19.409 25.21 4.294 29.934-26.841 20.528-6.425 16.963-5.533 30.391.458 6.752-15.274 9.274-7.587 21.3 2.605-1.031 5.474-1.738 8.633-2.083 19.136-2.09 30.562 2.606 37.244 11.315.545-.653 1.259-1.298 2.166-1.928 8.42-5.858 8.897 6.204 13.808 7.617 4.024 1.158 11.653-9.183 19.005-1.002 2.122 7.446-32.113 14.015-15.608 26.582.879.69 10.457-10.45 16.048-9.78 5.979 10.249-5.514 13.687-8.112 19.564-13.338 30.122 14.669 5.901 16.147 6.84 3.624 2.354 2.482 7.442.283 12.958 7.852-1.078 17.29 1.135 29.292 7.857-.717-1.225-1.11-2.985-1.039-5.532 11.697-1.668 16.694-8.438 23.431-17.005 4.999 12.824-5.133 18.54 3.943 30.19 13.81 17.652 8.64.347 22.923-4.733 4.365 15.289-10.603 24.54 2.064 37.965 27.97-21.99 5.672 14.254 7.263 24.183 2.118 13.383 18.833-4.23 17.132 9.137-1.451 11.215-22.591 7.863-20.58 25.912 1.583 14.13 16.862-6.317 17.631 11.25-5.049 8.476-38.855 3.136-21.035 20.022 1.411 1.345 11.181-4.932 10.323 7.448-9.216 3.089-18.448 3.361-24.797 10.465h-7.917a9 9 0 0 0 .847-3.476c.135-3.17-1.272-7.861-2.946-12.531-1.946 4.846-4.304 10.313-6.887 16.007H0V191.29c5.73-3.499 11.447-7.237 16.835-11.803 16.995-14.408 19.52-27.084 29.492-43.246 3.494-5.662 6.895 4.258 11.911 4.919 3.238-16.058-9.907-29.586-10.75-45.316C45.083 47.83 81.617 32.424 108.774.2m328.251 331.141c36.758 24.826-7.201 61.608-2.081 80.111 1.211 4.411 30.392 1.791 30.476 33.088.002.8-.191 1.942-.548 3.373 3.656 3.658 7.388 7.212 10.103 1.711.997-2.049-13.137-18.105-12.345-25.06l17.853 3.991c10.777-11.902-4.967-19.301-6.588-29.171l12.44-6.436c-8.164-9.279-37.951-7.523-14.344-19.562 17.001-8.678-17.442-16.76-18.6-18.042-3.372-3.872-.179-14.375-4.053-20.213-2.766-4.202-8.198-3.057-12.313-3.79m-68.573-30.928c-.303 19.184-3.2 40.036-1.438 55.77.491-.461 1.027-.813 1.615-1.026 5.592-9.629 10.857-18.24 16.895-24.46-4.378-8.365-8.091-15.997-12.481-24.436-1.106-2.137-2.764-4.013-4.591-5.848m-2.145-25.646a67 67 0 0 1 1.088 5.649l3.289-1.024c.448-.72-1.727-2.398-4.377-4.625" clip-rule="evenodd"/><path fill="url(#b)" d="M599.066 316.572c7.017-1.482 7.874-27.267 17.337-14.854-3.078 24.628-29.531 36.797-13.557 63.259 10.429-7.265 15.24-18.828 22.321-27.844 4.028-5.18 6.895-16.224 13.987-6.712 3.557 23.348-57.372 52.967-54.985 67.314 3.222 19.507 32.891-8.918 36.626-11.959 16.935-13.715 8.538 15.081-5.908 25.875-9.409 7.053-19.585-1.014-27.602 9.894-12.827 17.427-4.163 34.865 7.322 50.347 18.934-9.968 30.441-28.18 45.886-40.868 7.059-5.782 20.58-6.31 25.26-13.021 1.601-2.327-5.554-39.546 1.054-55.667 3.97-9.706 31.701-54.781 44.227-37.961l-34.605 42.675 25.546-.48c-10.666 13.865-40.505 28.906-18.579 45.563 24.713-10.748 23.013-56.538 39.065-66.843 22.586-14.493-10.827 46.526-5.718 48.474 34.081 6.743 29.179-19.201 44.28-36.377 5.013-5.682 11.065-5.108 11.211 1.421l.065-.001c.019 1.685-10.765 28.836-12.176 31.028-16.24 25.7-32.59 12.535-52.681 22.07-11.253 5.371-18.075 14.642-28.525 20.289-16.93 9.124-36.92 6.435-49.165 29.413 2.844 7.388 22.737 2.448 22.44 9.308-.17 3.792-1.65 5.975-3.894 7.085h-11.732c-6.826-1.635-13.833-4.794-16.294-4.812-5.503-.023-10.771 1.816-15.693 4.812h-28.67c2.181-11.359-.274-21.631-11.776-28.532-13.535-8.106-59.473 8.511-59.316-1.807 29.42-17.879 12.656-10.763 7.723-34.119-2.552-12.081 5.17-28.578 2.681-35.745-5.246-15.235-42.164-18.695-24.618-39.794 3.77 4.784 21.784 23.093 27.37 17.208 1.072-1.12-3.876-38.346 9.233-25.934 9.29 8.795-3.411 43.713 3.875 48.306 16.119 10.129 20.681-41.201 28.458-23.101 12.028 28.018-21.579 33.425-28.027 39.423-24.118 22.378 25.27 58.504 38.981 35.113 6.073-10.389 4.576-27.566 7.338-39.288 1.547-6.655 8.824-12.797 10.497-19.584 2.649-10.491-5.278-50.577-3.697-64.606z"/><path fill="url(#c)" d="M674.352 447.957c6.773-.412 5.309 15.483 3.506 30.043h-12.16c.739-13.643 1.54-29.645 8.654-30.043"/><path fill="url(#d)" d="M726.83 445.227c6.198-5.606 39.351-21.546 44.721-16.725 12.647 11.322-35.831 21.613-39.957 26.697-3.669 4.536-5.035 14.082-7.106 22.801h-15.075c4.573-11.097 7.529-23.869 17.417-32.773"/><path fill="url(#e)" d="M776.965 472.06c4.734-.083 6.129 2.62 5.186 5.94h-17.315c6.188-3.324 11.344-5.927 12.129-5.94"/><defs><radialGradient id="a" cx="0" cy="0" r="1" gradientTransform="matrix(0 491.5 -1366.98 0 952.5 -.5)" gradientUnits="userSpaceOnUse"><stop stop-color="#2898FF" stop-opacity="0"/><stop offset="1" stop-color="#2898FF"/></radialGradient><radialGradient id="b" cx="0" cy="0" r="1" gradientTransform="matrix(0 491.5 -1366.98 0 952.5 -.5)" gradientUnits="userSpaceOnUse"><stop stop-color="#2898FF" stop-opacity="0"/><stop offset="1" stop-color="#2898FF"/></radialGradient><radialGradient id="c" cx="0" cy="0" r="1" gradientTransform="matrix(0 491.5 -1366.98 0 952.5 -.5)" gradientUnits="userSpaceOnUse"><stop stop-color="#2898FF" stop-opacity="0"/><stop offset="1" stop-color="#2898FF"/></radialGradient><radialGradient id="d" cx="0" cy="0" r="1" gradientTransform="matrix(0 491.5 -1366.98 0 952.5 -.5)" gradientUnits="userSpaceOnUse"><stop stop-color="#2898FF" stop-opacity="0"/><stop offset="1" stop-color="#2898FF"/></radialGradient><radialGradient id="e" cx="0" cy="0" r="1" gradientTransform="matrix(0 491.5 -1366.98 0 952.5 -.5)" gradientUnits="userSpaceOnUse"><stop stop-color="#2898FF" stop-opacity="0"/><stop offset="1" stop-color="#2898FF"/></radialGradient></defs></svg>

<svg width="783" height="478" viewBox="0 0 783 478" fill="none" xmlns="http://www.w3.org/2000/svg">
<path fill-rule="evenodd" clip-rule="evenodd" d="M108.775 0.201172C107.146 22.8554 96.8926 40.8504 97.1787 64.7773C97.7512 112.631 139.833 138.096 127.094 193.884C116.141 241.799 32.0027 301.74 30.6348 334.338C30.3638 341.091 48.174 358.395 53.6768 358.81C57.9753 359.098 108.039 326.18 124.641 332.69C85.145 284.26 107.101 247.64 152.556 214.271C168.932 202.224 160.833 213.698 158.463 222.45C153.747 240.217 128.234 334.119 174.053 305.354C219.871 276.59 191.491 220.276 193.272 178.747C193.893 164.735 206.346 93.7575 213.747 88.0635C225.662 78.8099 223.914 92.2549 224.873 99.3311C233.026 160.288 250.303 170.26 263.619 216.368C276.935 262.476 263.622 307.43 233.482 341.578C219.219 357.776 198.077 363.376 192.938 369.75C184.567 380.081 181.793 405.597 169.956 422.242C159.429 437.022 142.05 442.698 131.361 456.87C182.026 487.487 198.322 466.427 217.171 440.686C207.655 419.661 200.833 401.893 200.437 395.193C198.77 366.827 226.17 351.912 252.002 356.853C270.215 360.361 276.178 386.512 281.899 400.573C283.862 405.361 284.63 414.264 291.466 406.204C303.412 392.156 276.312 298.412 299.847 262.445C294.981 257.955 289.526 253.721 290.711 251.283L306.018 239.225L293.298 228.76L305.721 222.426C308.038 207.322 295.398 206.05 292.021 192.914L306.339 193.277L289.669 169.517L305.328 174.288L287.317 146.12L317.757 136.632L317.593 136.876C324.359 147.362 309.088 150.917 309.351 157.108C310.194 176.485 321.759 168.444 322.64 169.133C325.812 171.571 303.231 194.343 326.934 199.067C300.093 219.595 320.509 216.03 321.401 229.458C321.859 236.21 306.127 238.732 313.814 250.758C316.419 249.727 319.288 249.02 322.447 248.675C341.583 246.585 353.009 251.281 359.691 259.99C360.236 259.337 360.95 258.692 361.857 258.062C370.277 252.204 370.754 264.266 375.665 265.679C379.689 266.837 387.318 256.496 394.67 264.677C396.792 272.123 362.557 278.692 379.062 291.259C379.941 291.949 389.519 280.809 395.11 281.479C401.089 291.728 389.596 295.166 386.998 301.043C373.66 331.165 401.667 306.944 403.145 307.883C406.769 310.237 405.627 315.325 403.428 320.841C411.28 319.763 420.718 321.976 432.72 328.698C432.003 327.473 431.61 325.713 431.681 323.166C443.378 321.498 448.375 314.728 455.112 306.161C460.111 318.985 449.979 324.701 459.055 336.351C472.865 354.003 467.695 336.698 481.978 331.618C486.343 346.907 471.375 356.158 484.042 369.583C512.012 347.593 489.714 383.837 491.305 393.766C493.423 407.149 510.138 389.536 508.437 402.903C506.986 414.118 485.846 410.766 487.857 428.815C489.44 442.945 504.719 422.498 505.488 440.065C500.439 448.541 466.633 443.201 484.453 460.087C485.864 461.432 495.634 455.155 494.776 467.535C485.56 470.624 476.328 470.896 469.979 478H462.062C462.549 476.967 462.853 475.819 462.909 474.524C463.044 471.354 461.637 466.663 459.963 461.993C458.017 466.839 455.659 472.306 453.076 478H0V191.29C5.72985 187.791 11.447 184.053 16.835 179.487C33.83 165.079 36.3557 152.403 46.3271 136.241C49.8213 130.579 53.2218 140.499 58.2383 141.16C61.4761 125.102 48.3305 111.574 47.4873 95.8438C45.0843 47.8308 81.6185 32.4244 108.775 0.201172ZM437.026 331.342C473.784 356.168 429.825 392.95 434.945 411.453C436.156 415.864 465.337 413.244 465.421 444.541C465.423 445.341 465.23 446.483 464.873 447.914C468.529 451.572 472.261 455.126 474.976 449.625C475.973 447.576 461.839 431.52 462.631 424.565L480.484 428.556C491.261 416.654 475.517 409.255 473.896 399.385L486.336 392.949C478.172 383.67 448.385 385.426 471.992 373.387C488.993 364.709 454.55 356.627 453.392 355.345C450.02 351.473 453.213 340.97 449.339 335.132C446.573 330.93 441.141 332.075 437.026 331.342ZM368.453 300.414C368.15 319.598 365.253 340.45 367.015 356.184C367.506 355.723 368.042 355.371 368.63 355.158C374.222 345.529 379.487 336.918 385.525 330.698C381.147 322.333 377.434 314.701 373.044 306.262C371.938 304.125 370.28 302.249 368.453 300.414ZM366.308 274.768C366.745 276.591 367.104 278.477 367.396 280.417L370.685 279.393C371.133 278.673 368.958 276.995 366.308 274.768Z" fill="url(#paint0_radial_697_150)"/>
<path d="M599.066 316.572C606.083 315.09 606.94 289.305 616.403 301.718C613.325 326.346 586.872 338.515 602.846 364.977C613.275 357.712 618.086 346.149 625.167 337.133C629.195 331.953 632.062 320.909 639.154 330.421C642.711 353.769 581.782 383.388 584.169 397.735C587.391 417.242 617.06 388.817 620.795 385.776C637.73 372.061 629.333 400.857 614.887 411.651C605.478 418.704 595.302 410.637 587.285 421.545C574.458 438.972 583.122 456.41 594.607 471.892C613.541 461.924 625.048 443.712 640.493 431.024C647.552 425.242 661.073 424.714 665.753 418.003C667.354 415.676 660.199 378.457 666.807 362.336C670.777 352.63 698.508 307.555 711.034 324.375L676.429 367.05L701.975 366.57C691.309 380.435 661.47 395.476 683.396 412.133C708.109 401.385 706.409 355.595 722.461 345.29C745.047 330.797 711.634 391.816 716.743 393.764C750.824 400.507 745.922 374.563 761.023 357.387C766.036 351.705 772.088 352.279 772.234 358.808L772.299 358.807C772.318 360.492 761.534 387.643 760.123 389.835C743.883 415.535 727.533 402.37 707.442 411.905C696.189 417.276 689.367 426.547 678.917 432.194C661.987 441.318 641.997 438.629 629.752 461.607C632.596 468.995 652.489 464.055 652.192 470.915C652.022 474.707 650.542 476.89 648.298 478H636.566C629.74 476.365 622.733 473.206 620.272 473.188C614.769 473.165 609.501 475.004 604.579 478H575.909C578.09 466.641 575.635 456.369 564.133 449.468C550.598 441.362 504.66 457.979 504.817 447.661C534.237 429.782 517.473 436.898 512.54 413.542C509.988 401.461 517.71 384.964 515.221 377.797C509.975 362.562 473.057 359.102 490.603 338.003C494.373 342.787 512.387 361.096 517.973 355.211C519.045 354.091 514.097 316.865 527.206 329.277C536.496 338.072 523.795 372.99 531.081 377.583C547.2 387.712 551.762 336.382 559.539 354.482C571.567 382.5 537.96 387.907 531.512 393.905C507.394 416.283 556.782 452.409 570.493 429.018C576.566 418.629 575.069 401.452 577.831 389.73C579.378 383.075 586.655 376.933 588.328 370.146C590.977 359.655 583.05 319.569 584.631 305.54L599.066 316.572Z" fill="url(#paint1_radial_697_150)"/>
<path d="M674.352 447.957C681.125 447.545 679.661 463.44 677.858 478H665.698C666.437 464.357 667.238 448.355 674.352 447.957Z" fill="url(#paint2_radial_697_150)"/>
<path d="M726.83 445.227C733.028 439.621 766.181 423.681 771.551 428.502C784.198 439.824 735.72 450.115 731.594 455.199C727.925 459.735 726.559 469.281 724.488 478H709.413C713.986 466.903 716.942 454.131 726.83 445.227Z" fill="url(#paint3_radial_697_150)"/>
<path d="M776.965 472.06C781.699 471.977 783.094 474.68 782.151 478H764.836C771.024 474.676 776.18 472.073 776.965 472.06Z" fill="url(#paint4_radial_697_150)"/>
<defs>
<radialGradient id="paint0_radial_697_150" cx="0" cy="0" r="1" gradientUnits="userSpaceOnUse" gradientTransform="translate(952.5 -0.499994) rotate(90) scale(491.5 1366.98)">
<stop stop-color="#2898FF" stop-opacity="0"/>
<stop offset="1" stop-color="#2898FF"/>
</radialGradient>
<radialGradient id="paint1_radial_697_150" cx="0" cy="0" r="1" gradientUnits="userSpaceOnUse" gradientTransform="translate(952.5 -0.499994) rotate(90) scale(491.5 1366.98)">
<stop stop-color="#2898FF" stop-opacity="0"/>
<stop offset="1" stop-color="#2898FF"/>
</radialGradient>
<radialGradient id="paint2_radial_697_150" cx="0" cy="0" r="1" gradientUnits="userSpaceOnUse" gradientTransform="translate(952.5 -0.499994) rotate(90) scale(491.5 1366.98)">
<stop stop-color="#2898FF" stop-opacity="0"/>
<stop offset="1" stop-color="#2898FF"/>
</radialGradient>
<radialGradient id="paint3_radial_697_150" cx="0" cy="0" r="1" gradientUnits="userSpaceOnUse" gradientTransform="translate(952.5 -0.499994) rotate(90) scale(491.5 1366.98)">
<stop stop-color="#2898FF" stop-opacity="0"/>
<stop offset="1" stop-color="#2898FF"/>
</radialGradient>
<radialGradient id="paint4_radial_697_150" cx="0" cy="0" r="1" gradientUnits="userSpaceOnUse" gradientTransform="translate(952.5 -0.499994) rotate(90) scale(491.5 1366.98)">
<stop stop-color="#2898FF" stop-opacity="0"/>
<stop offset="1" stop-color="#2898FF"/>
</radialGradient>
</defs>
</svg>
